X: 33944
T: Redback, The
R: jig
M: 6/8
K: Amixolydian
d|:e2d cBA|eaf ~g3|fed ecA|~g3 ~B3|
e2d cBA|eaf ~g3|fed ecA|1 dBG ~A3:|2 dBG A2d||
|:e2d cAA|ded cAA|ded cBA|agf ~g3|
[1 e2d cBA|agf ~g3|fed ecA|dBG ~A3:|
[2 agf gfe|fed ~g3|fed cAA|BAG A2d||

